cssgg/overflow.svg

<svg
  width="24"
  height="24"
  viewBox="0 0 24 24"
  fill="none"
  xmlns="http://www.w3.org/2000/svg"
>
  <path
    opacity="0.2"
    d="M22 11C22 13.6522 20.9464 16.1957 19.0711 18.0711C17.1957 19.9464 14.6522 21 12 21C9.34784 21 6.8043 19.9464 4.92893 18.0711C3.05357 16.1957 2 13.6522 2 11L22 11Z"
    fill="currentColor"
  />
  <path
    opacity="0.3"
    d="M20 11C20 13.1217 19.1571 15.1566 17.6569 16.6569C16.1566 18.1571 14.1217 19 12 19C9.87827 19 7.84344 18.1571 6.34315 16.6569C4.84286 15.1566 4 13.1217 4 11L20 11Z"
    fill="currentColor"
  />
  <path
    d="M20 11C20 8.87827 19.1571 6.84344 17.6569 5.34315C16.1566 3.84285 14.1217 3 12 3C9.87827 3 7.84344 3.84285 6.34315 5.34315C4.84286 6.84344 4 8.87827 4 11L20 11Z"
    fill="currentColor"
  />
</svg>

<svg viewBox="0 0 24 24" xmlns="http://www.w3.org/2000/svg"><g><path opacity=".2" d="M22 11c0 2.65-1.06 5.19-2.93 7.07 -1.88 1.87-4.42 2.92-7.08 2.92s-5.2-1.06-7.08-2.93c-1.88-1.88-2.93-4.42-2.93-7.08h20Z"/><path opacity=".3" d="M20 11c0 2.12-.85 4.15-2.35 5.65 -1.51 1.5-3.54 2.34-5.66 2.34 -2.13 0-4.16-.85-5.66-2.35 -1.51-1.51-2.35-3.54-2.35-5.66h16Z"/><path d="M20 11c0-2.13-.85-4.16-2.35-5.66 -1.51-1.51-3.54-2.35-5.66-2.35 -2.13 0-4.16.84-5.66 2.34 -1.51 1.5-2.35 3.53-2.35 5.65h16Z"/></g></svg>
